X: 1
T: Ave Maria ... benedicta tu
N: Derived from Reg2001-Ave_Maria_..._benedicta_tu.krn
C: Johannes Regis
%%abc-version 2.0
%%abcx-abcm2ps-target-version 5.9.1 (29 Sep 2008)
%%abc-creator hum2abc beta
%%abcx-conversion-date 2019/02/17 07:31:25
%%abc-edited-by Jesse Rodin
%%abc-edited-by Victoria Chang/Jesse Rodin
%%abcx-initial-encoding-date 2014/02/25/
%%humdrum-veritas 3433729038
%%humdrum-veritas-data 4058263166
%%linebreak <none>
%%barnumbers 0
L: 1/4
M: 2/1
Q: 1/2=120
V: 1 clef=treble
V: 2 clef=treble
V: 3 clef=bass
K: C
[V:1] F8 | 
[V:2] z8 | 
[V:3] F,6E,D, | 
[V:1] E8 | 
[V:2] z8 | 
[V:3] C,2D,4^C,2 | 
[V:1] F4A4- | 
[V:2] F8 | 
[V:3] D,8 | 
[V:1] A4G4 | 
[V:2] E8 | 
[V:3] A,3B,C4 | 
[V:1] z2F4ED | 
[V:2] F4A4- | 
[V:3] D6CB, | 
[V:1] C2D4^C2 | 
[V:2] A4G4 | 
[V:3] A,2G,F,E,4 | 
[V:1] D8 | 
[V:2] z2F4ED | 
[V:3] D,4F,4- | 
[V:1] A8 | 
[V:2] C2D4^C2 | 
[V:3] F,2D,2A,4 | 
[V:1] _B8 | 
[V:2] D8 | 
[V:3] G,8 | 
[V:1] A2c4_BA | 
[V:2] A8 | 
[V:3] F,8 | 
[V:1] G2A4G2 | 
[V:2] _B8 | 
[V:3] E,8 | 
[V:1] A6GF | 
[V:2] A2c4_BA | 
[V:3] F,3E,C,4- | 
[V:1] E2F2E4 | 
[V:2] G2A4G2 | 
[V:3] C,2A,,2C,4 | 
[V:1] z2A3_Bc2- | 
[V:2] A6GF | 
[V:3] z2F,3G,A,_B, | 
[V:1] c2_BAG4 | 
[V:2] E2F2D4 | 
[V:3] C2D2_B,4 | 
[V:1] !fermata!A8- | 
[V:2] E2F2!fermata!E4- | 
[V:3] !fermata!A,8- | 
[V:1] A8 | 
[V:2] E8 | 
[V:3] A,8 | 
[V:1] z8 | 
[V:2] z8 | 
[V:3] A,8- | 
[V:1] z8 | 
[V:2] z8 | 
[V:3] A,8 | 
[V:1] z8 | 
[V:2] z8 | 
[V:3] G,8 | 
[V:1] z8 | 
[V:2] A8- | 
[V:3] F,6E,D, | 
[V:1] z8 | 
[V:2] A8 | 
[V:3] C,4F,4- | 
[V:1] z8 | 
[V:2] G8 | 
[V:3] F,4E,4 | 
[V:1] A8- | 
[V:2] F6ED | 
[V:3] F,8- | 
[V:1] A8 | 
[V:2] C4F4- | 
[V:3] F,8 | 
[V:1] G8 | 
[V:2] F4E4 | 
[V:3] C8 | 
[V:1] F6ED | 
[V:2] F4A4- | 
[V:3] D6C2 | 
[V:1] C4F4- | 
[V:2] A4G2F2 | 
[V:3] A,4_B,4 | 
[V:1] F4E4 | 
[V:2] G8 | 
[V:3] G,8 | 
[V:1] F4A4- | 
[V:2] A4c4- | 
[V:3] z4F,4- | 
[V:1] A4G2F2 | 
[V:2] c4_B2A2 | 
[V:3] F,2G,2A,4 | 
[V:1] G8 | 
[V:2] _B8 | 
[V:3] E,8 | 
[V:1] A8 | 
[V:2] A4F4- | 
[V:3] z4A,4- | 
[V:1] z4c4- | 
[V:2] F4E2D2 | 
[V:3] A,4G,2F,2 | 
[V:1] c2B2A4- | 
[V:2] C8 | 
[V:3] E,4F,4 | 
[V:1] A4G2F2 | 
[V:2] z4F4 | 
[V:3] D,8 | 
[V:1] E8 | 
[V:2] G8- | 
[V:3] C,4C4 | 
[V:1] z4E4 | 
[V:2] G8 | 
[V:3] _B,2G,4F,E, | 
[V:1] F6E2 | 
[V:2] A6G2 | 
[V:3] D,4z2D2- | 
[V:1] F2G2A4- | 
[V:2] F2E2F4- | 
[V:3] D2CB,A,4 | 
[V:1] A4G4- | 
[V:2] F4G4 | 
[V:3] D4B,4 | 
[V:1] G2^F2F2EF | 
[V:2] A4c4 | 
[V:3] A,8 | 
[V:1] G4z4 | 
[V:2] B4d4- | 
[V:3] G,4D,2G,2- | 
[V:1] D2G4F2 | 
[V:2] d2c2B2A2 | 
[V:3] G,4G,4 | 
[V:1] E2D2C4 | 
[V:2] G4c4- | 
[V:3] C2B,2A,2G,2 | 
[V:1] F6E2 | 
[V:2] c2B2A2G2 | 
[V:3] F,4z4 | 
[V:1] D4C4 | 
[V:2] F4A4- | 
[V:3] _B,4A,2G,2 | 
[V:1] A,4A4- | 
[V:2] A2G2F2E2 | 
[V:3] F,2E,2D,4- | 
[V:1] A4G4- | 
[V:2] D4E4- | 
[V:3] D,2C,2C4- | 
[V:1] G4F4 | 
[V:2] E2D2D4- | 
[V:3] C4D4 | 
[V:1] E8 | 
[V:2] D4^C4 | 
[V:3] A,8 | 
[V:1] D4z4 | 
[V:2] D8 | 
[V:3] D,6E,2 | 
[V:1] D8 | 
[V:2] z8 | 
[V:3] F,4G,4- | 
[V:1] E4F4 | 
[V:2] z8 | 
[V:3] G,4F,4 | 
[V:1] D4G4- | 
[V:2] D8 | 
[V:3] G,6F,2 | 
[V:1] G4F4 | 
[V:2] E4F4 | 
[V:3] E,4D,4 | 
[V:1] G8 | 
[V:2] D4G4- | 
[V:3] G,4B,4 | 
[V:1] z4A4 | 
[V:2] G4^F4 | 
[V:3] A,8 | 
[V:1] B4d4- | 
[V:2] G6F2 | 
[V:3] G,8 | 
[V:1] d2c2c4- | 
[V:2] D4F4 | 
[V:3] F,4A,4 | 
[V:1] c4B4 | 
[V:2] E4G4 | 
[V:3] G,8 | 
[V:1] c6BA | 
[V:2] A4c4 | 
[V:3] F,4C,4 | 
[V:1] G4F4 | 
[V:2] B4d4- | 
[V:3] E,4D,2D2 | 
[V:1] G4E4 | 
[V:2] d2c2c4- | 
[V:3] B,4C4 | 
[V:1] D8 | 
[V:2] c4B4 | 
[V:3] G,8 | 
[V:1] C6D2 | 
[V:2] c6BA | 
[V:3] A,6G,F, | 
[V:1] E2F2G2A2 | 
[V:2] G6FE | 
[V:3] E,2D,2C,4 | 
[V:1] _B4A2G2- | 
[V:2] D4C4 | 
[V:3] G,4A,2E,2- | 
[V:1] G2F2F4- | 
[V:2] z4F4 | 
[V:3] E,2F,2A,2_B,2 | 
[V:1] F4E4 | 
[V:2] G8 | 
[V:3] G,3F,G,4 | 
[V:1] F4A4 | 
[V:2] A4c4 | 
[V:3] F,4z4 | 
[V:1] B2c4BA | 
[V:2] B2A4GF | 
[V:3] G,2A,2F,4 | 
[V:1] G4A4- | 
[V:2] E4F4- | 
[V:3] C4A,4- | 
[V:1] A4B4 | 
[V:2] F4E4- | 
[V:3] A,4G,4 | 
[V:1] c4d4 | 
[V:2] E2D2D2CD | 
[V:3] F,8 | 
[V:1] G6A2 | 
[V:2] E8- | 
[V:3] E,6F,2 | 
[V:1] B4c4- | 
[V:2] E8- | 
[V:3] G,4A,4- | 
[V:1] c4B2A2 | 
[V:2] E8 | 
[V:3] A,2G,2A,2B,2 | 
[V:1] G4c4 | 
[V:2] z4E4 | 
[V:3] C8 | 
[V:1] A4d4- | 
[V:2] F8 | 
[V:3] D6C2 | 
[V:1] d2c2B2A2 | 
[V:2] D4G4- | 
[V:3] B,2A,2G,4 | 
[V:1] G4c4- | 
[V:2] G2F2E2D2 | 
[V:3] C6B,2 | 
[V:1] c2B2A2G2 | 
[V:2] C4F2G2 | 
[V:3] A,2G,2F,2E,2 | 
[V:1] F4A4- | 
[V:2] A2B2c4 | 
[V:3] D,2D4C2 | 
[V:1] A2G2F4 | 
[V:2] A4d4- | 
[V:3] D6C2 | 
[V:1] E8 | 
[V:2] d4^c4 | 
[V:3] A,8 | 
[V:1] D8- | 
[V:2] d6c2 | 
[V:3] _B,6A,2 | 
[V:1] D8- | 
[V:2] A4_B4- | 
[V:3] F,4G,4- | 
[V:1] D8- | 
[V:2] B4A4 | 
[V:3] G,4F,4 | 
[V:1] D8 | 
[V:2] _B4A2G2 | 
[V:3] G,4F,2E,2 | 
[V:1] D8- | 
[V:2] F8- | 
[V:3] D,8- | 
[V:1] D8- | 
[V:2] F4G4 | 
[V:3] D,8- | 
[V:1] D8 |]  
[V:2] A8 |]  
[V:3] D,8 |]  



